X: 14296
T: Gale Bridge
R: slide
M: 12/8
K: Amajor
|:e|e2a c2e A2c BAc|B2B Bce f2e c2e|
e2a c2e A2c BAc|B2B BcB A2A A2:|
|:A|B2B Bce f2e c2e|B2B Bce f2e c2e|
e2a c2e A2c BAc|B2B BcB A2A A2:|

